X:1
T:James Gibb editions
T:Drake's drum - Stanford
T:#
%%score 1 [ 2 3 ] { ( 4 5 ) | ( 6 7 ) }
L:1/8
Q:1/4=88
M:4/4
K:F
V:1 bass nm="Voice"
V:2 treble nm="Tenor" snm="T"
V:3 treble nm="Bass" snm="B"
V:4 treble nm="Piano"
V:5 treble 
V:6 bass 
V:7 bass 
V:1
"^Drake's drum, Op. 91:1""^Henry Newbolt\n(1862-1938)""^Charles Villiers Stanford\n(1852-1924)""^tempo di marcia moderato" z8 | %1
w: |
 z8 |!mf! A,>G, F,>G, A,<D, (3z F,E, |[M:4/4] D,A, A,>G, A,4- | A,4 z4 | %5
w: |Drake, he's in his ham- mock and a|thou- sand mile a- way.||
!p! DA, (3z G,A, B,G, A,>F, | D,4 z4 |!mf! A,>G, F,>G, A,D, z ^C, | D,A,A,G,!>(! A,3!>)!!p! (B, | %9
w: (Cap- tain, art thou sleep- ing there be-|low?)|Slung a- tween the round shot in|Nom- bre Di- os Bay, And|
 B,A, C>A, F,F, D<B, | G,4) z4 | G,C B,>A, G,C z2 | G,C B,>A, G,3 G, | C>D C"^cresc."B, A,CF,A, | %14
w: dream- ing all the time of Ply- mouth|Hoe.|Yon- der lumes the is- land,|yon- der lie the ships, With|sai- lor, lads a- dan- cing heel- an'-|
 C,4 z2!mf! F,>F, | D2 D2 !>!DE, (3z E,E, | C2 C2 CD, z (B, | B,A,A,G, C4- | CF,)DB, A,F, D,>^C, | %19
w: toe, And the|shore- lights flash- ing, and the|night- tide dash- ing, He|sees it all so plain\-|* ly as he saw it long a-|
 D,4 z4 | z8 | A,>G, F,G, A,/D,/D, z ^C, | D,>A, A,<G, A,4- | A,4 z4 | %24
w: go.||Drake he was a De- von man, and|ruled the De- von seas,||
!pp! DA, (3z G,A, B,G, A,>F, | D,4 z4 | A,>G, F,G, A,D, z ^C, | D,A, A,>G, A,3 (B, | %28
w: (Cap- tain, art thou sleep- ing there be-|low?)|Rov- ìng tho' his death fell, he|went with heart at ease, And|
 B,A, C>A, F,F, D<B, | G,6) z2 | G,"^cresc."C B,>A, G,C z2 | G,C B,>A, G,4 | !>!DG, C>B, A,CF,A, | %33
w: dream- ing all the time of Ply- mouth|Hoe.|"Take my drum to Eng- land,|hang it by the shore,|Strike it when your pow- der's run- ning|
 C,4 z2!f! F,>F, | D2 D2 DE, z E, | C>C D>C CD, z B, | B,>A, G,F, A,<C DB, ||[M:2/4] A,F, E,>^C, || %38
w: low; If the|Dons sight De- von, I'll|quit the port of Hea- ven, And|drum them up the Chan- nel as we|drummed them long a-|
[M:4/4] x8 |[M:4/4] D,4 z4 |[K:D]!f!"^largamente" A,4 z G,F,G, | A,<D, z2 z2 F,>E, | %42
w: |go!"|Drake he's in his|ham- mock till the|
 D,2 A,2 A,3 G, | A,6 z2 | D2 A,2 z2 G,A, | B,2 A,2 B,3 G, | E,4 z4 | B,>A, G,>A, B,E, z2 | %48
w: great Ar- ma- das|come,|(Cap- tain, art thou|sleep- ing there be-|low?)|Slung a- tween the round shot,|
 B,A, G,>A, B,3 B, | D4- DB, E>C ||[M:2/4] A,D B,<G, ||[M:4/4] x8 |[M:4/4] E,6 z2 | %53
w: list'- ning for the drum, And|dream- * ing all the|time of Ply- mouth||Hoe.|
 E,A, G,>F, E,A, z2 | F,B, A,>G, B,4 | G,=C B,>"^cresc."A, B,>D C>B, | =C4 z2 G,>G, | %57
w: Call him on the deep sea,|Call him up the Sound,|Call him when ye sail to meet the|foe; Where the|
 =C2 C2 CD, (3z D,D, | D2 D2 D"^,"E,G,=C | %59
w: old trade's ply- mg and the|old flag fly- ing, They shall|
 B,A,[Q:1/4=87]=C[Q:1/4=86]!<(!B,[Q:1/4=85] (D[Q:1/4=84]^C[Q:1/4=82] E2-!<)! | %60
w: find him ware and wa\- * *|
[Q:1/4=80] E2)[Q:1/4=80] D z z2 DB, | A,2 F,2 F,7/2 E,/ |"^a tempo"[Q:1/4=88] D,6 z2 | z8 | z8 | %65
w: * king, As they|found him long a-|go!|||
 z8 | z8 |[Q:1/4=76] !fermata!z8 |] %68
w: |||
V:2
[K:C] z8 | z8 | z8 |[M:4/4] z8 | z8 | z8 |[M:4/4] z8 | z8 | z8 |[M:4/4] z8 | z8 | z8 |[M:4/4] z8 | %13
w: |||||||||||||
 z8 | z8 |[M:4/4] z8 | z8 | z8 |[M:4/4] z8 | z8 | z8 |[M:4/4] z8 | z8 | z8 |[M:4/4] z8 | z8 | %26
w: |||||||||||||
[M:4/4] z8 | z8 |[M:4/4] z8 | z8 | z8 |[M:4/4] z8 | z8 |[M:4/4] z8 | z8 | z8 |[M:4/4] z8 || z4 || %38
w: ||||||||||||
 z8 |[M:4/4] z8 | z8 |[M:4/4] z8 | z8 |[K:D][M:4/4][K:treble-8] z8 |!p! d2 A2 z2 GA | B2 A2 B3 G | %46
w: ||||||(Cap- tain, art thou|sleep- ing there be-|
 E6 z2 | z8 | z2!pp! E2 G2 B2 | d6 e2 ||[M:2/4] Ad B<G ||[M:4/4] x8 |[M:4/4][K:treble-8] E6 z2 | %53
w: low?)||And dream- ing|all the|time of Ply- mouth||Hoe.|
 z8 | z4!mf! FB B>A | G2 B>"^cresc."A B>d c>B | e4 z2!f! G>G | =c2 c2 cD (3z DD | d2 d2 d"^,"EG=c | %59
w: |Call him up the|Sound, when ye sail to meet the|foe; Where the|old trade's ply- ing and the|old flag fly- ing, They shall|
 BA"^rall."=c!<(!!<(!B (d^c e2-!<)!!<)! | !tenuto!e2) d z z2 dB | A2 F2 F7/2 E/ | D6 z2 | z8 | z8 | %65
w: find him ware and wa\- * *|* king, As they|found him long a-|go!|||
 z8 | z8 | !fermata!z8 |] %68
w: |||
V:3
[K:C] z8 | z8 | z8 |[M:4/4] z8 | z8 | z8 |[M:4/4] z8 | z8 | z8 |[M:4/4] z8 | z8 | z8 |[M:4/4] z8 | %13
w: |||||||||||||
 z8 | z8 |[M:4/4] z8 | z8 | z8 |[M:4/4] z8 | z8 | z8 |[M:4/4] z8 | z8 | z8 |[M:4/4] z8 | z8 | %26
w: |||||||||||||
[M:4/4] z8 | z8 |[M:4/4] z8 | z8 | z8 |[M:4/4] z8 | z8 |[M:4/4] z8 | z8 | z8 |[M:4/4] z8 || z4 || %38
w: ||||||||||||
 z8 |[M:4/4] z8 | z8 |[M:4/4] z8 | z8 |[K:D][M:4/4][K:bass] z8 |!p! D2 A,2 z2 G,A, | %45
w: ||||||(Cap- tain, art thou|
 B,2 A,2 B,3 G, | F,6 z2 | z8 | z2!pp! E,2 G,2 G,2 | [G,B,]6 [E,G,]2 || %50
w: sleep- ing there be-|low?)||And dream- ing|all the|
[M:2/4] [F,A,][F,A,] [G,B,]<[E,G,] ||[M:4/4] x8 |[M:4/4] E,6 z2 | z4!mf! E,A, A,>G, | F,B, z2 z4 | %55
w: time of Ply- mouth||Hoe.|Call him on the|deep sea,|
 G,E, G,>"^cresc."=F, [D,F,]>[F,B,] [E,A,]>[E,G,] | [G,_B,]4 z2!f! G,>G, | =C2 C2 CD, (3z D,D, | %58
w: Call him when ye sail to meet the|foe; Where the|old trade's ply- ing and the|
 D2 D2 D"^,"E,[E,G,][E,G,] | [G,B,][=F,A,]"^rall."[D,F,]!<(!!<(![D,F,] ([E,G,]2 [G,B,]2-!<)!!<)! | %60
w: old flag fly- ing, They shall|find him ware and wa\- *|
 [G,B,]2 [G,B,]) z z2 DB, | A,2 F,2 F,7/2 E,/ | D,6!mf!"^Bass I" E"^dim."B, | A,2 F,2 F,7/2 E,/ | %64
w: * king, As they|found him long a-|go! As they|found him long a-|
 D,6 z2 | z2"^Bass II" =C,4- C,>_B,, |!pp! A,,8 | !fermata!z8 |] %68
w: go!|long * a\-|go!||
V:4
!p! .D z{ED^C} .D z{EDC} .D z!p! (F>E | .D) z{ED^C} .D z{EDC} .D z F>E | %2
 .D z{ED^C} .D z({EDC)} .D z F>E |[M:4/4] (.D z{ED^C} .D z{EDC} .D) z (F>E- | %4
 .D) z{ED^C} .D z{EDC} .D z (F>E |!pp! [A,D]) z [B,D] z [G,C] z [A,C] z | %6
!p! D z{ED^C} .D z{EDC} .D z (F>E | .D) z{ED^C} .D z{ED.C} .D z (F>E | %8
 D) z{ED^C} .D z{EDC} .D z A>G | C2 ([A,_E]2- [A,D]2 [B,DB]2) | .G z{AGF} .G z{AGF} .G z (B>A | %11
 .G) z{AGF} .G z{AGF} .G z (B>A | .G z{AGF} .G z{AGF} .G) z (B>A | %13
 .G) z z .[B,CG] z .[A,CG] z .[A,CF] | .[G,CE] z{DC=B,} .C z{DCB,} .C z [Ff] z | %15
!p! .D z{ED^C} .D z{EDC} .D z [Ed] z |!p! C z{DC=B,} C z{DCB,} C z!pp! (G>F) | %17
 (BA) (AG) (GF) (AG) | (GF) (D=E) [A,CF] z [E,G,D] z |!p! .D z{ED^C} .D z{EDC} .D z (F>E | %20
 .D) z{ED^C} .D z{EDC} .D z F>E | (.D z{ED^C} .D z{EDC} .D) z (F>E | %22
 .D) z{ED^C} .D z{EDC} .D z (F>E | .D) z{ED^C} .D z{EDC} .D z F>E | %24
!pp! ([A,D] z [B,D] z [G,C] z [A,C] z |!p! .D z{ED^C} .D z{EDC} .D z (F>E | %26
 .D z{ED^C} .D) z{E^DC} .D) z (F>E | .D) z{ED^C} .D z{EDC} .D z A>G | %28
 (.C2 [A,_EA]2- [A,DF]2 [B,DB]2 | .G z{AG^F} G) z{AGF} G z (B>A | %30
"^cresc." G) z{AG^F} G z{AGF} G z B>A | (G z{AG^F} G z{AGF} G) z (B>A | %32
 [Bd]) z [GBg] z [FAc] z [FAf] z |!<(!{dc=B} c z{dcB} c z{dcB} c!<)! z!mf! (f>e) | %34
 [Fd] z [DFc] z [DEB] z A>G | [CEc] z [CEB] z [CDA] z!f! c>B | B>A .[DG].[CF]!f! [FA]2 .[DFBd] z || %37
[M:2/4] [A,DA] z[I:staff +1] [^C,G,^C][I:staff -1] z ||[M:4/4] x8 | %39
[M:4/4] z2{E,D,^C,}[I:staff +1] .D,[I:staff -1] x!>(!{E,D,C,}[I:staff +1] D,[I:staff -1] x{E,D,C,}[I:staff +1] D,!>)![I:staff -1] x | %40
[K:D]!p! [A,DF]4- [A,DF] z!p! F>E | [A,DF]4- [A,DF] z F>E | [A,DF]4- [A,DF] z F>E | %43
 [A,DF]4- [A,DF] z F>E |!mf! z2 (3:2:1x4 z2 (3:2:1x2 | z2 x2 z2 x2 | [G,B,E]4- [G,B,E] z (G>F) | %47
 [G,B,E]4- [G,B,E] z (G>F) | [G,B,E]2!<(! [G,B,E] z [B,EG] z [EGB]!<)! z |!mf! z2 x2 z2 x2 || %50
[M:2/4] (3(ADd (3B[EG][DF] ||[M:4/4] x8 |[M:4/4]!p! E z{FE^D} E z{FED} E) z (G>F | %53
"^cresc." E) z{FE^D} .E z{FED} .E z A>G | ([A,^DF] z{GF^E} F z{GFE} F) z (B>A) | %55
 [=CG] z [GB]>[=FA] [DFB] z [A=c]>[GB] |!mf! [E_Be] z{d=c=B} c z{dcB} c z{dcB} c z | %57
{d=cB} c z [=C=FA]2 [DFAc] z{E,D,C,}[I:staff +1] D,[I:staff -1] x | %58
 [GBd] z [B,D=FB]2 [DGBd]"^," z [G,=CG]2 | [GB]"^rall."[=FA]!<(! =cB d^c!<)! [GBe]2- | %60
 [GBe] z z2 [dgd'] z [G,B,DG]2 | [A,CFA]4 [B,DFB]2[I:staff +1] [C,G,C]2 | %62
"^a tempo"!mf![I:staff -1] z2"^dim."{EDC} D z{EDC} D z (F>E | [A,D] z{EDC} D z{EDC} D) z (F>E | %64
 [A,D]) z{EDC} D z{EDC} D z (=C>_B, | [F,A,]) z =C>_B, [F,A,] z C>B, | %66
!pp![I:staff +1] [F,A,][I:staff -1] x[I:staff +1] [A,,E,A,][I:staff -1] x[I:staff +1] [A,,E,A,][I:staff -1] x[I:staff +1] [A,,E,A,][I:staff -1] x | %67
[I:staff +1] !fermata![A,,F,A,]8 |] %68
V:5
 x6 ^C2 | x6 ^C2 | x6 ^C2 |[M:4/4] x6 ^C2 | x6 ^C2 | x4 x4 | x6 ^C2 | x6 ^C2 | x6 D2 | x4 x4 | %10
 x6 F2 | x6 F2 | x6 F2 | x8 | x8 | x4 x4 | x6 [_B,D]2 | [CF]2 D2 C2 E2- | ED B,2 x z x z | x6 ^C2 | %20
 x z x z x z ^C2 | x6 ^C2 | x6 ^C2 | x6 ^C2 | x4 x4 | x6 ^C2 | x6 ^C2 | x6 D2 | x4 x4 | %29
 x6 !courtesy!=F2 | x6 !courtesy!=F2 | x6 !courtesy!=F2 | x4 x4 | x6 F2 | x z x z x z E2 | %35
 x z x z x z [DG]2 | [CF]2 x2 x2 x z ||[M:2/4] x4 ||[M:4/4] x8 |[M:4/4] x4 x4 | %40
[K:D] x4 x z [B,D]2 | x4 x2 .[B,D]2 | x4 x z [B,D]2 | x4 x z [B,D]2 | x8 | x8 | x4 x z [A,^D]2 | %47
 x4 x2 [A,^D]2 | x4 x4 | x4 x4 ||[M:2/4] x4 ||[M:4/4] x8 |[M:4/4] x6 =D2 | x6 [A,E]2 | x6 [B,=F]2 | %55
 x z =C2 x z E2 | x8 | x8 | x4 x4 | =C2 [D=F]2 [EG]2 x2 | x4 x4 | x4 x4 | z2 x2 x2 B,2 | x6 B,2 | %64
 x8 | x8 | x8 | x8 |] %68
V:6
!p! .[D,F,A,] z .[C,D,F,A,] z .[B,,D,F,A,] z [A,,G,]2 | %1
 .[D,F,A,] z .[C,D,F,A,] z .[B,,D,F,A,] z [A,,G,]2- | %2
 .[D,F,A,] z .[C,D,F,A,] z .[B,,D,F,A,] z [A,,G,]2 | %3
[M:4/4] .[D,F,A,] z .[C,D,F,A,] z .[B,,D,F,A,] z [A,,G,]2- | %4
 .[D,F,A,] z .[C,D,F,A,] z .[B,,D,F,A,] z ([A,,G,]2- |!pp! [D,F,]) z [G,,F,] z [C,E,] z [F,,F,] z | %6
 [D,F,A,] z [C,D,F,A,] z [B,,D,F,A,] z [A,,G,]2- | %7
 .[D,F,A,] z .[C,D,F,A,] z .[B,,D,F,A,] z [A,,G,]2 | %8
 .[D,F,A,] z .[C,D,F,A,] z .[B,,D,F,A,] z [B,,E,]2- | [A,,F,]2 [F,,F,]2- [B,,F,]2 [G,,F,]2 | %10
 .[C,E,C] z .[D,F,C] z .[E,G,C] z [D,F,]2- | .[C,E,C] z .[D,F,C] z .[E,G,D] z [D,F,]2 | %12
 .[C,E,C] z .[D,F,C] z .[E,G,C] z [D,F,]2- | .[C,E,C] z .E,, z .F,, z .A,, z | %14
 .C, z [B,,E,G,] z [A,,E,G,] z [A,C] z |!p! .[B,,D,F,] z .[A,,D,F,] z .[G,,D,E,] z [G,B,] z | %16
!p! [A,,C,E,] z [G,,C,E,] z [F,,C,D,] z x2 | z2 (D,E,) (E,F,) [F,A,]2- | %18
 [B,,A,]2 (G,,2 A,,) z B,, z | [D,F,A,] z [C,D,F,A,] z [B,,D,F,A,] z [A,,G,]2 | %20
 [D,F,A,] z [C,D,F,A,] z [B,,D,F,A,] z [A,,G,]2 | [D,F,A,] z [C,D,F,A,] z [B,,D,F,A,] z [A,,G,]2- | %22
 [D,F,A,] z [C,D,F,A,] z [B,,D,F,A,] z [A,,G,]2 | [D,F,A,] z [C,D,F,A,] z [B,,D,F,A,] z [A,,G,]2 | %24
!pp! [D,F,] z [G,,F,] z [C,E,] z [F,,F,] z |!p! .[D,F,A,] z .[C,D,F,A,] z .[B,,D,F,A,] z [A,,G,]2 | %26
 .[D,F,A,] z .[C,D,F,A,] z .[B,,D,F,A,] z [A,,G,]2 | %27
 .[D,F,A,] z .[C,D,F,A,] z .[B,,D,F,A,] z [B,,E,]2 | [A,,F,]2 ([F,,F,]2- [B,,F,]2 [G,,F,]2) | %29
 [C,E,C] z [D,F,C] z [E,G,C] z [D,F,]2 |"^cresc." [C,E,C] z [D,F,C] z [E,G,C] z [D,F,]2 | %31
 ([C,E,C] z [D,F,C] z [E,G,C] z [F,D]2 | [G,F] z [E,C] x [F,C] z [D,F,=B,] z | %33
 [E,G,C] z [F,A,D] z [G,_B,E] z!mf! [A,C]2 | [B,,B,] z [A,,A,] z [G,,G,] z [B,D]2 | %35
 [A,,A,] z [G,,G,] z [^F,,^F,] z!f! [G,,G,]2 | C,2 .B,.A,!f! C2 .[B,,B,] z || %37
[M:2/4] [F,,F,] z [A,,,A,,] z ||[M:4/4] x8 | %39
[M:4/4] [D,,,D,,] z{E,,D,,^C,,} D,, z{E,,D,,C,,} D,,) z{E,,D,,C,,} D,, z | %40
[K:D]!p! [D,,,D,,] z{C,B,,^A,,} B,, z{B,,=A,,^G,,} A,, z{A,,=G,,F,,} G,, z | %41
 [D,,,D,,] z{C,B,,^A,,} B,, z{B,,=A,,^G,,} A,, z{A,,=G,,F,,} G,, z | %42
 [D,,,F,,] z({D,=C,B,,)} C, z{^C,B,,^A,,} B,, z{=A,,G,,F,,} G,, z | %43
 [D,,,D,,] z{D,=C,B,,} C, z{C,B,,^A,,} B,,{=A,,G,,F,,}G,, z x | %44
 (3(F,,D,F,[I:staff -1] (3A,D[FA])[I:staff +1] (3(A,,^D,F,[I:staff -1] (3=C^D[F=c]) | %45
[I:staff +1] (3(G,,"^3"E,G,[I:staff -1] (3B,E[GB])[I:staff +1] (3(^D,,A,,^D,[I:staff -1] (3A,=C[^DG]) | %46
[I:staff +1] [E,,,E,,] z{E,D,=C,} D, z{D,C,B,,} C, z{C,B,,^A,,} B,, z | %47
 [E,,,E,,] z{E,D,=C,} D, z{D,C,B,,} C, z{C,B,,^A,,} B,, z | %48
 [E,,,E,,] z!<(!{A,,G,,F,,} G,, z!<)!{=C,B,,^A,,} B,, z{F,E,^D,} E, z | %49
!mf! (3(G,B,D[I:staff -1] (3[Gd]B[Gd])[I:staff +1] (3(E,G,C[I:staff -1] (3[Ge]B[Ge]) || %50
[M:2/4][I:staff +1] [F,A,]2 [G,B,]G,, ||[M:4/4] x8 | %52
[M:4/4]!p! [A,,C,A,] z [B,,D,A,] z [C,E,A,] z [E,G,B,]2 | %53
"^cresc." [A,,C,A,] z [B,,D,A,] z [C,E,A,] z [=C,,=C,]2 | %54
 [B,,,B,,] z [^C,E,B,] z .[^D,F,B,] z [!courtesy!=D,,=D,]2- | %55
 [E,,E,] z ([=F,,=F,]2 [D,,D,]) z [E,,E,]2 | %56
!mf! [=C,,=C,] z [C,E,_B,=C] z [D,=F,B,C] z [E,G,B,C] z | %57
 [=F,A,=C] z [=F,,F,]2 [D,,D,] z{E,,D,,C,,} D,, z | [G,B,D] z [G,,G,]2 [E,,E,] z [E,,E,]2 | %59
 [=F,,=F,]2 [^G,,^G,]2 [^A,,^A,]2 (3B,,E,=G, | B, z z2 [B,DG] z [E,,,E,,]2 | %61
 [F,,,F,,]4 [G,,,G,,]2 [A,,,A,,]2 | z2!f!!mf!"^dim." [B,,D,F,] z [A,,D,F,] z [G,,D,]2- | %63
 [F,,D,] z [B,,D,F,] z [A,,D,F,] z [G,,D,]2- | [F,,D,] z [B,,D,G,] z [A,,=C,F,] z [G,,_B,,E,]2 | %65
 [D,,D,] z"^rall." ([G,,_B,,E,]2 [D,,D,]) z [G,,B,,E,]2 | %66
 [D,,D,] z [D,,,D,,] z [D,,,D,,] z [D,,,D,,] z | !fermata![D,,,D,,]8 |] %68
V:7
 x8 | x8 | x8 |[M:4/4] x8 | x8 | x8 | x8 | x8 | x8 | x8 | x8 | x8 | x8 | x8 | x8 | x8 | x6 (G,,2 | %17
 C,2 B,,2 A,,2) x2 | x8 | x8 | x8 | x8 | x8 | x8 | x8 | x8 | x8 | x8 | x8 | x8 | x8 | x8 | x8 | %33
 x8 | x8 | x8 | x8 ||[M:2/4] x4 ||[M:4/4] x8 |[M:4/4] x8 |[K:D] x8 | x8 | x8 | x8 | x8 | x8 | x8 | %47
 x8 | x8 | x8 ||[M:2/4] x4 ||[M:4/4] x8 |[M:4/4] x8 | x8 | x8 | x8 | x8 | x8 | x8 | x8 | x8 | x8 | %62
 x8 | x8 | x8 | x8 | x8 | x8 |] %68

